packages/icons/web/calculator_large.svg

<svg width="24" height="24" fill="none" xmlns="http://www.w3.org/2000/svg">
    <path fill-rule="evenodd" clip-rule="evenodd" d="M18 2H6a2 2 0 00-2 2v16a2 2 0 002 2h12a2 2 0 002-2V4a2 2 0 00-2-2zM6 6V4h12v2H6zm0 2v12h12V8H6zm4 10H8v-2h2v2zm1 0h2v-2h-2v2zm5 0h-2v-5h2v5zm-8-3h2v-2H8v2zm5 0h-2v-2h2v2zm-3-3H8v-2h2v2zm1 0h2v-2h-2v2zm5 0h-2v-2h2v2z" fill="currentColor"/>
</svg>

<svg width="24" height="24" viewBox="0 0 24 24" fill="none" xmlns="http://www.w3.org/2000/svg">
<path fill-rule="evenodd" clip-rule="evenodd" d="M18 2H6C4.89543 2 4 2.89543 4 4V20C4 21.1046 4.89543 22 6 22H18C19.1046 22 20 21.1046 20 20V4C20 2.89543 19.1046 2 18 2ZM6 6V4H18V6H6ZM6 8V20H18V8H6ZM10 18H8V16H10V18ZM11 18H13V16H11V18ZM16 18H14V15V14V13H16V14V15V18ZM8 15H10V13H8V15ZM13 15H11V13H13V15ZM10 12H8V10H10V12ZM11 12H13V10H11V12ZM16 12H14V10H16V12Z" fill="#212933"/>
</svg>
